X: 1775
T: Orley Benson's 1st Figure, 1st Set
B: australian traditional tunes wiki
M:2/4
L:1/16
R: Set Tune
Q: 1/4=100
K:D
V:1 
A2d2||"D"f6g2|f4 e2Bc|"G"d4-d2Bc|"D"d4 B2cB|A4-A2Bc|d4c2d2|"A7"e6f2|e4A2d2|
"D"f6g2|f4 e2Bc|"G"d4-d2Bc|"D"d4 B2cB|A4-A2Bc|d2A2 "A7"c2e2|"D"d6e2|d4F2G2||
|:"D"A4B2c2|d4c2d2|"A7"e2fe d2e2|"D"f4F2G2|A4B2c2|d4c2d2|"A7"e4B2c2|"D"d4:|
% abcbook-tune_id 6342d53ad1909294ac061be9


% abcbook-boost 0
% abcbook-tablature 
% abcbook-transpose 
% abcbook-lastupdated 1665324383122
% abcbook-soundfonts 
% abcbook-repeats 1
% NFF Book 2014

